docs/.gitbook/assets/icon-align-centre-16@light.svg

<svg width="32" height="32" viewBox="0 0 16 16" fill="none" xmlns="http://www.w3.org/2000/svg">
<rect x="0" y="0" width="16" height="16" fill="#fff"/>
<path fill-rule="evenodd" clip-rule="evenodd" d="M8 1C8.41421 1 8.75 1.33579 8.75 1.75V3H9.25C10.2165 3 11 3.7835 11 4.75V5.25C11 6.2165 10.2165 7 9.25 7H8.75V9H13.25C14.2165 9 15 9.7835 15 10.75V11.25C15 12.2165 14.2165 13 13.25 13H8.75V14.25C8.75 14.6642 8.41421 15 8 15C7.58579 15 7.25 14.6642 7.25 14.25V13H2.75C1.7835 13 1 12.2165 1 11.25V10.75C1 9.7835 1.7835 9 2.75 9H7.25V7H6.75C5.7835 7 5 6.2165 5 5.25V4.75C5 3.7835 5.7835 3 6.75 3H7.25V1.75C7.25 1.33579 7.58579 1 8 1ZM8 4.5H6.75C6.61193 4.5 6.5 4.61193 6.5 4.75V5.25C6.5 5.38807 6.61193 5.5 6.75 5.5H8H9.25C9.38807 5.5 9.5 5.38807 9.5 5.25V4.75C9.5 4.61193 9.38807 4.5 9.25 4.5H8ZM8 10.5H2.75C2.61193 10.5 2.5 10.6119 2.5 10.75V11.25C2.5 11.3881 2.61193 11.5 2.75 11.5H8H13.25C13.3881 11.5 13.5 11.3881 13.5 11.25V10.75C13.5 10.6119 13.3881 10.5 13.25 10.5H8Z" fill="#000"/>
</svg>

<svg xmlns="http://www.w3.org/2000/svg" width="32" height="32" fill="none" viewBox="0 0 16 16"><path fill="#fff" d="M0 0h16v16H0z"/><path fill="#000" fill-rule="evenodd" d="M8 1a.75.75 0 0 1 .75.75V3h.5c.966 0 1.75.784 1.75 1.75v.5A1.75 1.75 0 0 1 9.25 7h-.5v2h4.5c.966 0 1.75.784 1.75 1.75v.5A1.75 1.75 0 0 1 13.25 13h-4.5v1.25a.75.75 0 0 1-1.5 0V13h-4.5A1.75 1.75 0 0 1 1 11.25v-.5C1 9.784 1.784 9 2.75 9h4.5V7h-.5A1.75 1.75 0 0 1 5 5.25v-.5C5 3.784 5.784 3 6.75 3h.5V1.75A.75.75 0 0 1 8 1m0 3.5H6.75a.25.25 0 0 0-.25.25v.5c0 .138.112.25.25.25h2.5a.25.25 0 0 0 .25-.25v-.5a.25.25 0 0 0-.25-.25zm0 6H2.75a.25.25 0 0 0-.25.25v.5c0 .138.112.25.25.25h10.5a.25.25 0 0 0 .25-.25v-.5a.25.25 0 0 0-.25-.25z" clip-rule="evenodd"/></svg>
